src/assets/images/youtube.svg

<svg width="64" height="64" viewBox="0 0 64 64" fill="none" xmlns="http://www.w3.org/2000/svg">
<g opacity="0.8">
<path fill-rule="evenodd" clip-rule="evenodd" d="M15 27C15 23.134 18.134 20 22 20H42C45.866 20 49 23.134 49 27V37C49 40.866 45.866 44 42 44H22C18.134 44 15 40.866 15 37V27ZM22 22C19.2386 22 17 24.2386 17 27V37C17 39.7614 19.2386 42 22 42H42C44.7614 42 47 39.7614 47 37V27C47 24.2386 44.7614 22 42 22H22Z" fill="#31394D"/>
<path fill-rule="evenodd" clip-rule="evenodd" d="M28.4648 26.4206C28.7709 26.2411 29.1492 26.2372 29.4589 26.4105L37.8909 31.1275C38.2069 31.3043 38.4027 31.6381 38.4027 32.0002C38.4027 32.3623 38.2069 32.6962 37.8909 32.873L29.4589 37.59C29.1492 37.7632 28.7709 37.7594 28.4648 37.5799C28.1588 37.4004 27.9707 37.0721 27.9707 36.7173V27.2832C27.9707 26.9284 28.1588 26.6001 28.4648 26.4206ZM29.9707 28.9885V35.012L35.3544 32.0002L29.9707 28.9885Z" fill="#31394D"/>
</g>
</svg>

<?xml version="1.0" encoding="utf-8"?>
<!-- Generator: Adobe Illustrator 17.1.0, SVG Export Plug-In . SVG Version: 6.00 Build 0)  -->
<!DOCTYPE svg PUBLIC "-//W3C//DTD SVG 1.1//EN" "http://www.w3.org/Graphics/SVG/1.1/DTD/svg11.dtd">
<svg version="1.1" id="Layer_1" xmlns="http://www.w3.org/2000/svg" xmlns:xlink="http://www.w3.org/1999/xlink" x="0px" y="0px"
	 viewBox="13.5 18.8 36.6 26.5" enable-background="new 13.5 18.8 36.6 26.5" xml:space="preserve">
<g opacity="0.8">
	<path fill="#31394D" d="M15,27c0-3.9,3.1-7,7-7h20c3.9,0,7,3.1,7,7v10c0,3.9-3.1,7-7,7H22c-3.9,0-7-3.1-7-7V27z M22,22
		c-2.8,0-5,2.2-5,5v10c0,2.8,2.2,5,5,5h20c2.8,0,5-2.2,5-5V27c0-2.8-2.2-5-5-5H22z"/>
	<path fill="#31394D" d="M28.5,26.4c0.3-0.2,0.7-0.2,1,0l8.4,4.7c0.3,0.2,0.5,0.5,0.5,0.9c0,0.4-0.2,0.7-0.5,0.9l-8.4,4.7
		c-0.3,0.2-0.7,0.2-1,0c-0.3-0.2-0.5-0.5-0.5-0.9v-9.4C28,26.9,28.2,26.6,28.5,26.4z M30,29v6l5.4-3L30,29z"/>
</g>
</svg>
